src/main/resources/icons/AllIcons/general/collapseComponent.svg

<!-- Copyright 2000-2021 JetBrains s.r.o. Use of this source code is governed by the Apache 2.0 license that can be found in the LICENSE file. -->
<svg width="16" height="16" viewBox="0 0 16 16" fill="none" xmlns="http://www.w3.org/2000/svg">
<g id="idea/community/platform/icons/src/general/collapseComponent">
<g id="Icons/collapse">
<path id="Combined Shape" fill-rule="evenodd" clip-rule="evenodd" d="M13.8784 2.87843L13.1713 2.17133L10.6713 4.67133L8.5 2.50001V7.50001H13.5L11.3784 5.37843L13.8784 2.87843Z" fill="#7F8B91" fill-opacity="0.5"/>
<path id="Combined Shape_2" fill-rule="evenodd" clip-rule="evenodd" d="M2.17157 13.1716L2.87868 13.8787L5.37868 11.3787L7.5 13.5V8.50001H2.5L4.67157 10.6716L2.17157 13.1716Z" fill="#7F8B91" fill-opacity="0.5"/>
</g>
</g>
</svg>

<svg width="16" height="16" viewBox="0 0 16 16" fill="none" xmlns="http://www.w3.org/2000/svg"><rect id="frame" width="16" height="16" fill="none"/><g fill-rule="evenodd" clip-rule="evenodd" fill="#7F8B91" fill-opacity=".5"><path d="M13.878 2.878l-.707-.707-2.5 2.5L8.5 2.5v5h5l-2.122-2.122 2.5-2.5z"/><path d="M2.172 13.172l.707.707 2.5-2.5L7.5 13.5v-5h-5l2.172 2.172-2.5 2.5z"/></g></svg>
